public/illustration/fb.svg

<svg width="32" height="32" viewBox="0 0 32 32" fill="none" xmlns="http://www.w3.org/2000/svg">
<rect width="32" height="32" fill="#F7F7F7"/>
<g clip-path="url(#clip0_744_5235)">
<path d="M32 16.0991C32 7.21568 24.8287 0 16 0C7.17129 0 0 7.21568 0 16.0991C0 24.1404 5.85847 30.7946 13.5056 32V20.7389H9.41949V16.0826H13.5056V12.5325C13.5056 8.50361 15.8851 6.25799 19.5281 6.25799C21.2841 6.25799 23.0892 6.60474 23.0892 6.60474V10.5346H21.0871C19.1015 10.5346 18.4615 11.7895 18.4615 13.0609V16.0826H22.9087L22.2031 20.7389H18.478V32C26.1415 30.7946 32 24.1404 32 16.0991Z" fill="#FB0021"/>
</g>
<defs>
<clipPath id="clip0_744_5235">
<rect width="32" height="32" fill="white"/>
</clipPath>
</defs>
</svg>

<svg xmlns="http://www.w3.org/2000/svg" width="32" height="32" fill="none" viewBox="0 0 32 32"><g clip-path="url(#a)"><path fill="#fb0021" d="M32 16.1C32 7.215 24.829 0 16 0S0 7.216 0 16.1C0 24.14 5.858 30.794 13.506 32V20.739H9.419v-4.656h4.087v-3.55c0-4.03 2.38-6.275 6.022-6.275 1.756 0 3.561.347 3.561.347v3.93h-2.002c-1.985 0-2.625 1.255-2.625 2.526v3.022h4.447l-.706 4.656h-3.725V32C26.141 30.795 32 24.14 32 16.1"/></g><defs><clipPath id="a"><path fill="#fff" d="M0 0h32v32H0z"/></clipPath></defs></svg>
